ox-hugo/diNERQ.svg

<?xml version="1.0" encoding="UTF-8" standalone="no"?>
<svg
   width="80.769531pt"
   height="77.093781pt"
   viewBox="0 0 80.769534 77.093778"
   version="1.1"
   id="svg86"
   xmlns:xlink="http://www.w3.org/1999/xlink"
   xmlns="http://www.w3.org/2000/svg"
   xmlns:svg="http://www.w3.org/2000/svg">
  <defs
     id="defs32">
    <g
       id="g21">
      <g
         id="glyph-0-0" />
      <g
         id="glyph-0-1">
        <path
           d="m 4.46875,-2 c 0,-1.1875 -0.8125,-2.1875 -1.890625,-2.1875 -0.46875,0 -0.90625,0.15625 -1.265625,0.515625 V -5.625 c 0.203125,0.0625 0.53125,0.125 0.84375,0.125 1.234375,0 1.9375,-0.90625 1.9375,-1.03125 0,-0.0625 -0.03125,-0.109375 -0.109375,-0.109375 0,0 -0.03125,0 -0.078125,0.03125 C 3.703125,-6.515625 3.21875,-6.3125 2.546875,-6.3125 2.15625,-6.3125 1.6875,-6.390625 1.21875,-6.59375 1.140625,-6.625 1.125,-6.625 1.109375,-6.625 1,-6.625 1,-6.546875 1,-6.390625 V -3.4375 c 0,0.171875 0,0.25 0.140625,0.25 0.078125,0 0.09375,-0.015625 0.140625,-0.078125 C 1.390625,-3.421875 1.75,-3.96875 2.5625,-3.96875 c 0.515625,0 0.765625,0.453125 0.84375,0.640625 0.15625,0.375 0.1875,0.75 0.1875,1.25 0,0.359375 0,0.953125 -0.25,1.375 C 3.109375,-0.3125 2.734375,-0.0625 2.28125,-0.0625 c -0.71875,0 -1.296875,-0.53125 -1.46875,-1.109375 0.03125,0 0.0625,0.015625 0.171875,0.015625 0.328125,0 0.5,-0.25 0.5,-0.484375 0,-0.25 -0.171875,-0.5 -0.5,-0.5 C 0.84375,-2.140625 0.5,-2.0625 0.5,-1.609375 0.5,-0.75 1.1875,0.21875 2.296875,0.21875 3.453125,0.21875 4.46875,-0.734375 4.46875,-2 Z m 0,0"
           id="path3" />
      </g>
      <g
         id="glyph-0-2">
        <path
           d="m 2.9375,-1.640625 v 0.859375 c 0,0.359375 -0.03125,0.46875 -0.765625,0.46875 H 1.96875 V 0 C 2.375,-0.03125 2.890625,-0.03125 3.3125,-0.03125 c 0.421875,0 0.9375,0 1.359375,0.03125 v -0.3125 h -0.21875 c -0.734375,0 -0.75,-0.109375 -0.75,-0.46875 V -1.640625 H 4.6875 v -0.3125 H 3.703125 v -4.53125 c 0,-0.203125 0,-0.265625 -0.171875,-0.265625 -0.078125,0 -0.109375,0 -0.1875,0.125 l -3.0625,4.671875 v 0.3125 z m 0.046875,-0.3125 H 0.5625 l 2.421875,-3.71875 z m 0,0"
           id="path6" />
      </g>
      <g
         id="glyph-0-3">
        <path
           d="m 1.265625,-0.765625 1.0625,-1.03125 c 1.546875,-1.375 2.140625,-1.90625 2.140625,-2.90625 0,-1.140625 -0.890625,-1.9375 -2.109375,-1.9375 -1.125,0 -1.859375,0.921875 -1.859375,1.8125 0,0.546875 0.5,0.546875 0.53125,0.546875 0.171875,0 0.515625,-0.109375 0.515625,-0.53125 0,-0.25 -0.1875,-0.515625 -0.53125,-0.515625 -0.078125,0 -0.09375,0 -0.125,0.015625 0.21875,-0.65625 0.765625,-1.015625 1.34375,-1.015625 0.90625,0 1.328125,0.8125 1.328125,1.625 C 3.5625,-3.90625 3.078125,-3.125 2.515625,-2.5 l -1.90625,2.125 C 0.5,-0.265625 0.5,-0.234375 0.5,0 H 4.203125 L 4.46875,-1.734375 H 4.234375 C 4.171875,-1.4375 4.109375,-1 4,-0.84375 3.9375,-0.765625 3.28125,-0.765625 3.0625,-0.765625 Z m 0,0"
           id="path9" />
      </g>
      <g
         id="glyph-0-4">
        <path
           d="m 4.75,-6.078125 c 0.078125,-0.109375 0.078125,-0.125 0.078125,-0.34375 H 2.40625 c -1.203125,0 -1.234375,-0.125 -1.265625,-0.3125 h -0.25 L 0.5625,-4.6875 h 0.25 c 0.03125,-0.15625 0.109375,-0.78125 0.25,-0.90625 0.0625,-0.0625 0.84375,-0.0625 0.96875,-0.0625 h 2.0625 C 3.984375,-5.5 3.203125,-4.40625 2.984375,-4.078125 2.078125,-2.734375 1.75,-1.34375 1.75,-0.328125 c 0,0.09375 0,0.546875 0.46875,0.546875 0.453125,0 0.453125,-0.453125 0.453125,-0.546875 V -0.84375 c 0,-0.546875 0.03125,-1.09375 0.109375,-1.625 0.046875,-0.234375 0.171875,-1.09375 0.625,-1.703125 z m 0,0"
           id="path12" />
      </g>
      <g
         id="glyph-0-5">
        <path
           d="m 1.3125,-3.265625 v -0.25 c 0,-2.515625 1.234375,-2.875 1.75,-2.875 0.234375,0 0.65625,0.0625 0.875,0.40625 -0.15625,0 -0.546875,0 -0.546875,0.4375 0,0.3125 0.234375,0.46875 0.453125,0.46875 0.15625,0 0.46875,-0.09375 0.46875,-0.484375 0,-0.59375 -0.4375,-1.078125 -1.265625,-1.078125 -1.28125,0 -2.625,1.28125 -2.625,3.484375 0,2.671875 1.15625,3.375 2.078125,3.375 1.109375,0 2.0625,-0.9375 2.0625,-2.25 0,-1.265625 -0.890625,-2.21875 -2,-2.21875 -0.671875,0 -1.046875,0.5 -1.25,0.984375 z M 2.5,-0.0625 c -0.625,0 -0.921875,-0.59375 -0.984375,-0.75 -0.1875,-0.46875 -0.1875,-1.265625 -0.1875,-1.4375 0,-0.78125 0.328125,-1.78125 1.21875,-1.78125 0.171875,0 0.625,0 0.9375,0.625 0.171875,0.359375 0.171875,0.875 0.171875,1.359375 0,0.484375 0,0.984375 -0.171875,1.34375 C 3.1875,-0.109375 2.734375,-0.0625 2.5,-0.0625 Z m 0,0"
           id="path15" />
      </g>
      <g
         id="glyph-0-6">
        <path
           d="m 1.625,-4.5625 c -0.453125,-0.296875 -0.5,-0.625 -0.5,-0.796875 0,-0.609375 0.65625,-1.03125 1.359375,-1.03125 0.71875,0 1.359375,0.515625 1.359375,1.234375 0,0.578125 -0.390625,1.046875 -0.984375,1.390625 z m 1.453125,0.953125 C 3.796875,-3.984375 4.28125,-4.5 4.28125,-5.15625 c 0,-0.921875 -0.875,-1.484375 -1.78125,-1.484375 -1,0 -1.8125,0.734375 -1.8125,1.671875 0,0.171875 0.015625,0.625 0.4375,1.09375 0.109375,0.109375 0.484375,0.359375 0.734375,0.53125 C 1.28125,-3.046875 0.421875,-2.5 0.421875,-1.5 c 0,1.046875 1.015625,1.71875 2.0625,1.71875 1.125,0 2.078125,-0.828125 2.078125,-1.890625 0,-0.359375 -0.109375,-0.8125 -0.5,-1.234375 C 3.875,-3.109375 3.71875,-3.203125 3.078125,-3.609375 Z m -1,0.421875 1.234375,0.78125 c 0.28125,0.1875 0.75,0.484375 0.75,1.09375 0,0.734375 -0.75,1.25 -1.5625,1.25 -0.859375,0 -1.578125,-0.609375 -1.578125,-1.4375 0,-0.578125 0.3125,-1.21875 1.15625,-1.6875 z m 0,0"
           id="path18" />
      </g>
    </g>
    <clipPath
       id="clip-0">
      <path
         clip-rule="nonzero"
         d="M 0,53 H 24 V 77.09375 H 0 Z m 0,0"
         id="path23" />
    </clipPath>
    <clipPath
       id="clip-1">
      <path
         clip-rule="nonzero"
         d="M 32,53 H 62 V 77.09375 H 32 Z m 0,0"
         id="path26" />
    </clipPath>
    <clipPath
       id="clip-2">
      <path
         clip-rule="nonzero"
         d="M 57,53 H 80.769531 V 77.09375 H 57 Z m 0,0"
         id="path29" />
    </clipPath>
  </defs>
  <path
     fill="none"
     stroke-width="0.3985"
     stroke-linecap="butt"
     stroke-linejoin="miter"
     stroke="#000000"
     stroke-opacity="1"
     stroke-miterlimit="10"
     d="m 47.792969,8.953156 c 0,-4.835937 -3.921875,-8.753906 -8.753907,-8.753906 -4.835937,0 -8.753906,3.917969 -8.753906,8.753906 0,4.832031 3.917969,8.75 8.753906,8.75 4.832032,0 8.753907,-3.917969 8.753907,-8.75 z m 0,0"
     id="path34" />
  <g
     fill="#000000"
     fill-opacity="1"
     id="g38"
     transform="translate(0,3.0997735e-5)">
    <use
       xlink:href="#glyph-0-1"
       x="36.547001"
       y="12.162"
       id="use36" />
  </g>
  <path
     fill="none"
     stroke-width="0.3985"
     stroke-linecap="butt"
     stroke-linejoin="miter"
     stroke="#000000"
     stroke-opacity="1"
     stroke-miterlimit="10"
     d="m 27.285156,38.546906 c 0,-4.835937 -3.917969,-8.753906 -8.753906,-8.753906 -4.832031,0 -8.753906,3.917969 -8.753906,8.753906 0,4.832031 3.921875,8.753906 8.753906,8.753906 4.835937,0 8.753906,-3.921875 8.753906,-8.753906 z m 0,0"
     id="path40" />
  <g
     fill="#000000"
     fill-opacity="1"
     id="g44"
     transform="translate(0,3.0997735e-5)">
    <use
       xlink:href="#glyph-0-2"
       x="16.041"
       y="41.756001"
       id="use42" />
  </g>
  <g
     clip-path="url(#clip-0)"
     id="g48"
     transform="translate(0,3.0997735e-5)">
    <path
       fill="none"
       stroke-width="0.3985"
       stroke-linecap="butt"
       stroke-linejoin="miter"
       stroke="#000000"
       stroke-opacity="1"
       stroke-miterlimit="10"
       d="m 8.755031,3.209375 c 0,4.835937 -3.921875,8.753906 -8.753906,8.753906 -4.835938,0 -8.753906,-3.917969 -8.753906,-8.753906 0,-4.832031 3.917968,-8.753906 8.753906,-8.753906 4.832031,0 8.753906,3.921875 8.753906,8.753906 z m 0,0"
       transform="matrix(1,0,0,-1,8.952,71.35)"
       id="path46" />
  </g>
  <g
     fill="#000000"
     fill-opacity="1"
     id="g52"
     transform="translate(0,3.0997735e-5)">
    <use
       xlink:href="#glyph-0-3"
       x="6.4619999"
       y="71.349998"
       id="use50" />
  </g>
  <path
     fill="none"
     stroke-width="0.3985"
     stroke-linecap="butt"
     stroke-linejoin="miter"
     stroke="#000000"
     stroke-opacity="1"
     stroke-miterlimit="10"
     d="m 68.296875,38.546906 c 0,-4.835937 -3.917969,-8.753906 -8.753906,-8.753906 -4.832032,0 -8.753907,3.917969 -8.753907,8.753906 0,4.832031 3.921875,8.753906 8.753907,8.753906 4.835937,0 8.753906,-3.921875 8.753906,-8.753906 z m 0,0"
     id="path54" />
  <g
     fill="#000000"
     fill-opacity="1"
     id="g58"
     transform="translate(0,3.0997735e-5)">
    <use
       xlink:href="#glyph-0-4"
       x="57.053001"
       y="41.756001"
       id="use56" />
  </g>
  <g
     clip-path="url(#clip-1)"
     id="g62"
     transform="translate(0,3.0997735e-5)">
    <path
       fill="none"
       stroke-width="0.3985"
       stroke-linecap="butt"
       stroke-linejoin="miter"
       stroke="#000000"
       stroke-opacity="1"
       stroke-miterlimit="10"
       d="m 8.752437,3.209375 c 0,4.835937 -3.917968,8.753906 -8.75390575,8.753906 -4.83203125,0 -8.75000025,-3.917969 -8.75000025,-8.753906 0,-4.832031 3.917969,-8.753906 8.75000025,-8.753906 4.83593775,0 8.75390575,3.921875 8.75390575,8.753906 z m 0,0"
       transform="matrix(1,0,0,-1,47.271,71.35)"
       id="path60" />
  </g>
  <g
     fill="#000000"
     fill-opacity="1"
     id="g66"
     transform="translate(0,3.0997735e-5)">
    <use
       xlink:href="#glyph-0-5"
       x="44.779999"
       y="71.349998"
       id="use64" />
  </g>
  <g
     clip-path="url(#clip-2)"
     id="g70"
     transform="translate(0,3.0997735e-5)">
    <path
       fill="none"
       stroke-width="0.3985"
       stroke-linecap="butt"
       stroke-linejoin="miter"
       stroke="#000000"
       stroke-opacity="1"
       stroke-miterlimit="10"
       d="m 8.753312,3.209375 c 0,4.835937 -3.917968,8.753906 -8.75390575,8.753906 -4.83203125,0 -8.75390625,-3.917969 -8.75390625,-8.753906 0,-4.832031 3.921875,-8.753906 8.75390625,-8.753906 4.83593775,0 8.75390575,3.921875 8.75390575,8.753906 z m 0,0"
       transform="matrix(1,0,0,-1,71.817,71.35)"
       id="path68" />
  </g>
  <g
     fill="#000000"
     fill-opacity="1"
     id="g74"
     transform="translate(0,3.0997735e-5)">
    <use
       xlink:href="#glyph-0-6"
       x="69.325996"
       y="71.349998"
       id="use72" />
  </g>
  <path
     fill="none"
     stroke-width="0.3985"
     stroke-linecap="butt"
     stroke-linejoin="miter"
     stroke="#000000"
     stroke-opacity="1"
     stroke-miterlimit="10"
     d="M 33.9375,16.308625 23.628906,31.187531"
     id="path76" />
  <path
     fill="none"
     stroke-width="0.3985"
     stroke-linecap="butt"
     stroke-linejoin="miter"
     stroke="#000000"
     stroke-opacity="1"
     stroke-miterlimit="10"
     d="M 15.773437,47.062531 11.707031,59.621125"
     id="path78" />
  <path
     fill="none"
     stroke-width="0.3985"
     stroke-linecap="butt"
     stroke-linejoin="miter"
     stroke="#000000"
     stroke-opacity="1"
     stroke-miterlimit="10"
     d="M 44.136719,16.308625 54.445312,31.187531"
     id="path80" />
  <path
     fill="none"
     stroke-width="0.3985"
     stroke-linecap="butt"
     stroke-linejoin="miter"
     stroke="#000000"
     stroke-opacity="1"
     stroke-miterlimit="10"
     d="M 56.113281,46.816437 50.699219,59.871125"
     id="path82" />
  <path
     fill="none"
     stroke-width="0.3985"
     stroke-linecap="butt"
     stroke-linejoin="miter"
     stroke="#000000"
     stroke-opacity="1"
     stroke-miterlimit="10"
     d="m 62.972656,46.816437 5.414063,13.054688"
     id="path84" />
</svg>

<?xml version="1.0" encoding="UTF-8" standalone="no"?>
<svg
   width="80.769pt"
   height="77.092pt"
   viewBox="0 0 80.769 77.092"
   version="1.1"
   id="svg86"
   xmlns:xlink="http://www.w3.org/1999/xlink"
   xmlns="http://www.w3.org/2000/svg"
   xmlns:svg="http://www.w3.org/2000/svg">
  <defs
     id="defs32">
    <g
       id="g21">
      <g
         id="glyph-0-0" />
      <g
         id="glyph-0-1">
        <path
           d="M 4.46875 -2 C 4.46875 -3.1875 3.65625 -4.1875 2.578125 -4.1875 C 2.109375 -4.1875 1.671875 -4.03125 1.3125 -3.671875 L 1.3125 -5.625 C 1.515625 -5.5625 1.84375 -5.5 2.15625 -5.5 C 3.390625 -5.5 4.09375 -6.40625 4.09375 -6.53125 C 4.09375 -6.59375 4.0625 -6.640625 3.984375 -6.640625 C 3.984375 -6.640625 3.953125 -6.640625 3.90625 -6.609375 C 3.703125 -6.515625 3.21875 -6.3125 2.546875 -6.3125 C 2.15625 -6.3125 1.6875 -6.390625 1.21875 -6.59375 C 1.140625 -6.625 1.125 -6.625 1.109375 -6.625 C 1 -6.625 1 -6.546875 1 -6.390625 L 1 -3.4375 C 1 -3.265625 1 -3.1875 1.140625 -3.1875 C 1.21875 -3.1875 1.234375 -3.203125 1.28125 -3.265625 C 1.390625 -3.421875 1.75 -3.96875 2.5625 -3.96875 C 3.078125 -3.96875 3.328125 -3.515625 3.40625 -3.328125 C 3.5625 -2.953125 3.59375 -2.578125 3.59375 -2.078125 C 3.59375 -1.71875 3.59375 -1.125 3.34375 -0.703125 C 3.109375 -0.3125 2.734375 -0.0625 2.28125 -0.0625 C 1.5625 -0.0625 0.984375 -0.59375 0.8125 -1.171875 C 0.84375 -1.171875 0.875 -1.15625 0.984375 -1.15625 C 1.3125 -1.15625 1.484375 -1.40625 1.484375 -1.640625 C 1.484375 -1.890625 1.3125 -2.140625 0.984375 -2.140625 C 0.84375 -2.140625 0.5 -2.0625 0.5 -1.609375 C 0.5 -0.75 1.1875 0.21875 2.296875 0.21875 C 3.453125 0.21875 4.46875 -0.734375 4.46875 -2 Z M 4.46875 -2 "
           id="path3" />
      </g>
      <g
         id="glyph-0-2">
        <path
           d="M 2.9375 -1.640625 L 2.9375 -0.78125 C 2.9375 -0.421875 2.90625 -0.3125 2.171875 -0.3125 L 1.96875 -0.3125 L 1.96875 0 C 2.375 -0.03125 2.890625 -0.03125 3.3125 -0.03125 C 3.734375 -0.03125 4.25 -0.03125 4.671875 0 L 4.671875 -0.3125 L 4.453125 -0.3125 C 3.71875 -0.3125 3.703125 -0.421875 3.703125 -0.78125 L 3.703125 -1.640625 L 4.6875 -1.640625 L 4.6875 -1.953125 L 3.703125 -1.953125 L 3.703125 -6.484375 C 3.703125 -6.6875 3.703125 -6.75 3.53125 -6.75 C 3.453125 -6.75 3.421875 -6.75 3.34375 -6.625 L 0.28125 -1.953125 L 0.28125 -1.640625 Z M 2.984375 -1.953125 L 0.5625 -1.953125 L 2.984375 -5.671875 Z M 2.984375 -1.953125 "
           id="path6" />
      </g>
      <g
         id="glyph-0-3">
        <path
           d="M 1.265625 -0.765625 L 2.328125 -1.796875 C 3.875 -3.171875 4.46875 -3.703125 4.46875 -4.703125 C 4.46875 -5.84375 3.578125 -6.640625 2.359375 -6.640625 C 1.234375 -6.640625 0.5 -5.71875 0.5 -4.828125 C 0.5 -4.28125 1 -4.28125 1.03125 -4.28125 C 1.203125 -4.28125 1.546875 -4.390625 1.546875 -4.8125 C 1.546875 -5.0625 1.359375 -5.328125 1.015625 -5.328125 C 0.9375 -5.328125 0.921875 -5.328125 0.890625 -5.3125 C 1.109375 -5.96875 1.65625 -6.328125 2.234375 -6.328125 C 3.140625 -6.328125 3.5625 -5.515625 3.5625 -4.703125 C 3.5625 -3.90625 3.078125 -3.125 2.515625 -2.5 L 0.609375 -0.375 C 0.5 -0.265625 0.5 -0.234375 0.5 0 L 4.203125 0 L 4.46875 -1.734375 L 4.234375 -1.734375 C 4.171875 -1.4375 4.109375 -1 4 -0.84375 C 3.9375 -0.765625 3.28125 -0.765625 3.0625 -0.765625 Z M 1.265625 -0.765625 "
           id="path9" />
      </g>
      <g
         id="glyph-0-4">
        <path
           d="M 4.75 -6.078125 C 4.828125 -6.1875 4.828125 -6.203125 4.828125 -6.421875 L 2.40625 -6.421875 C 1.203125 -6.421875 1.171875 -6.546875 1.140625 -6.734375 L 0.890625 -6.734375 L 0.5625 -4.6875 L 0.8125 -4.6875 C 0.84375 -4.84375 0.921875 -5.46875 1.0625 -5.59375 C 1.125 -5.65625 1.90625 -5.65625 2.03125 -5.65625 L 4.09375 -5.65625 C 3.984375 -5.5 3.203125 -4.40625 2.984375 -4.078125 C 2.078125 -2.734375 1.75 -1.34375 1.75 -0.328125 C 1.75 -0.234375 1.75 0.21875 2.21875 0.21875 C 2.671875 0.21875 2.671875 -0.234375 2.671875 -0.328125 L 2.671875 -0.84375 C 2.671875 -1.390625 2.703125 -1.9375 2.78125 -2.46875 C 2.828125 -2.703125 2.953125 -3.5625 3.40625 -4.171875 Z M 4.75 -6.078125 "
           id="path12" />
      </g>
      <g
         id="glyph-0-5">
        <path
           d="M 1.3125 -3.265625 L 1.3125 -3.515625 C 1.3125 -6.03125 2.546875 -6.390625 3.0625 -6.390625 C 3.296875 -6.390625 3.71875 -6.328125 3.9375 -5.984375 C 3.78125 -5.984375 3.390625 -5.984375 3.390625 -5.546875 C 3.390625 -5.234375 3.625 -5.078125 3.84375 -5.078125 C 4 -5.078125 4.3125 -5.171875 4.3125 -5.5625 C 4.3125 -6.15625 3.875 -6.640625 3.046875 -6.640625 C 1.765625 -6.640625 0.421875 -5.359375 0.421875 -3.15625 C 0.421875 -0.484375 1.578125 0.21875 2.5 0.21875 C 3.609375 0.21875 4.5625 -0.71875 4.5625 -2.03125 C 4.5625 -3.296875 3.671875 -4.25 2.5625 -4.25 C 1.890625 -4.25 1.515625 -3.75 1.3125 -3.265625 Z M 2.5 -0.0625 C 1.875 -0.0625 1.578125 -0.65625 1.515625 -0.8125 C 1.328125 -1.28125 1.328125 -2.078125 1.328125 -2.25 C 1.328125 -3.03125 1.65625 -4.03125 2.546875 -4.03125 C 2.71875 -4.03125 3.171875 -4.03125 3.484375 -3.40625 C 3.65625 -3.046875 3.65625 -2.53125 3.65625 -2.046875 C 3.65625 -1.5625 3.65625 -1.0625 3.484375 -0.703125 C 3.1875 -0.109375 2.734375 -0.0625 2.5 -0.0625 Z M 2.5 -0.0625 "
           id="path15" />
      </g>
      <g
         id="glyph-0-6">
        <path
           d="M 1.625 -4.5625 C 1.171875 -4.859375 1.125 -5.1875 1.125 -5.359375 C 1.125 -5.96875 1.78125 -6.390625 2.484375 -6.390625 C 3.203125 -6.390625 3.84375 -5.875 3.84375 -5.15625 C 3.84375 -4.578125 3.453125 -4.109375 2.859375 -3.765625 Z M 3.078125 -3.609375 C 3.796875 -3.984375 4.28125 -4.5 4.28125 -5.15625 C 4.28125 -6.078125 3.40625 -6.640625 2.5 -6.640625 C 1.5 -6.640625 0.6875 -5.90625 0.6875 -4.96875 C 0.6875 -4.796875 0.703125 -4.34375 1.125 -3.875 C 1.234375 -3.765625 1.609375 -3.515625 1.859375 -3.34375 C 1.28125 -3.046875 0.421875 -2.5 0.421875 -1.5 C 0.421875 -0.453125 1.4375 0.21875 2.484375 0.21875 C 3.609375 0.21875 4.5625 -0.609375 4.5625 -1.671875 C 4.5625 -2.03125 4.453125 -2.484375 4.0625 -2.90625 C 3.875 -3.109375 3.71875 -3.203125 3.078125 -3.609375 Z M 2.078125 -3.1875 L 3.3125 -2.40625 C 3.59375 -2.21875 4.0625 -1.921875 4.0625 -1.3125 C 4.0625 -0.578125 3.3125 -0.0625 2.5 -0.0625 C 1.640625 -0.0625 0.921875 -0.671875 0.921875 -1.5 C 0.921875 -2.078125 1.234375 -2.71875 2.078125 -3.1875 Z M 2.078125 -3.1875 "
           id="path18" />
      </g>
    </g>
    <clipPath
       id="clip-0">
      <path
         clip-rule="nonzero"
         d="M 0 53 L 24 53 L 24 77.09375 L 0 77.09375 Z M 0 53 "
         id="path23" />
    </clipPath>
    <clipPath
       id="clip-1">
      <path
         clip-rule="nonzero"
         d="M 32 53 L 62 53 L 62 77.09375 L 32 77.09375 Z M 32 53 "
         id="path26" />
    </clipPath>
    <clipPath
       id="clip-2">
      <path
         clip-rule="nonzero"
         d="M 57 53 L 80.769531 53 L 80.769531 77.09375 L 57 77.09375 Z M 57 53 "
         id="path29" />
    </clipPath>
  </defs>
  <path
     fill="none"
     stroke-width="0.3985"
     stroke-linecap="butt"
     stroke-linejoin="miter"
     stroke="rgb(0%, 0%, 0%)"
     stroke-opacity="1"
     stroke-miterlimit="10"
     d="M 8.754969 3.208875 C 8.754969 8.044812 4.833094 11.962781 0.0010625 11.962781 C -4.834875 11.962781 -8.752844 8.044812 -8.752844 3.208875 C -8.752844 -1.623156 -4.834875 -5.541125 0.0010625 -5.541125 C 4.833094 -5.541125 8.754969 -1.623156 8.754969 3.208875 Z M 8.754969 3.208875 "
     transform="matrix(1, 0, 0, -1, 39.038, 12.162)"
     id="path34" />
  <g
     fill="#000000"
     fill-opacity="1"
     id="g38">
    <use
       xlink:href="#glyph-0-1"
       x="36.547001"
       y="12.162"
       id="use36" />
  </g>
  <path
     fill="none"
     stroke-width="0.3985"
     stroke-linecap="butt"
     stroke-linejoin="miter"
     stroke="rgb(0%, 0%, 0%)"
     stroke-opacity="1"
     stroke-miterlimit="10"
     d="M 8.753156 3.209125 C 8.753156 8.045062 4.835187 11.963031 -0.00075 11.963031 C -4.832781 11.963031 -8.754656 8.045062 -8.754656 3.209125 C -8.754656 -1.622906 -4.832781 -5.544781 -0.00075 -5.544781 C 4.835187 -5.544781 8.753156 -1.622906 8.753156 3.209125 Z M 8.753156 3.209125 "
     transform="matrix(1, 0, 0, -1, 18.532, 41.756)"
     id="path40" />
  <g
     fill="#000000"
     fill-opacity="1"
     id="g44">
    <use
       xlink:href="#glyph-0-2"
       x="16.041"
       y="41.756001"
       id="use42" />
  </g>
  <g
     clip-path="url(#clip-0)"
     id="g48">
    <path
       fill="none"
       stroke-width="0.3985"
       stroke-linecap="butt"
       stroke-linejoin="miter"
       stroke="#000000"
       stroke-opacity="1"
       stroke-miterlimit="10"
       d="m 8.755031,3.209375 c 0,4.835937 -3.921875,8.753906 -8.753906,8.753906 -4.835938,0 -8.753906,-3.917969 -8.753906,-8.753906 0,-4.832031 3.917968,-8.753906 8.753906,-8.753906 4.832031,0 8.753906,3.921875 8.753906,8.753906 z m 0,0"
       transform="matrix(1,0,0,-1,8.952,71.35)"
       id="path46" />
  </g>
  <g
     fill="#000000"
     fill-opacity="1"
     id="g52">
    <use
       xlink:href="#glyph-0-3"
       x="6.4619999"
       y="71.349998"
       id="use50" />
  </g>
  <path
     fill="none"
     stroke-width="0.3985"
     stroke-linecap="butt"
     stroke-linejoin="miter"
     stroke="rgb(0%, 0%, 0%)"
     stroke-opacity="1"
     stroke-miterlimit="10"
     d="M 8.752875 3.209125 C 8.752875 8.045062 4.834906 11.963031 -0.00103125 11.963031 C -4.833063 11.963031 -8.754938 8.045062 -8.754938 3.209125 C -8.754938 -1.622906 -4.833063 -5.544781 -0.00103125 -5.544781 C 4.834906 -5.544781 8.752875 -1.622906 8.752875 3.209125 Z M 8.752875 3.209125 "
     transform="matrix(1, 0, 0, -1, 59.544, 41.756)"
     id="path54" />
  <g
     fill="#000000"
     fill-opacity="1"
     id="g58">
    <use
       xlink:href="#glyph-0-4"
       x="57.053001"
       y="41.756001"
       id="use56" />
  </g>
  <g
     clip-path="url(#clip-1)"
     id="g62">
    <path
       fill="none"
       stroke-width="0.3985"
       stroke-linecap="butt"
       stroke-linejoin="miter"
       stroke="#000000"
       stroke-opacity="1"
       stroke-miterlimit="10"
       d="m 8.752437,3.209375 c 0,4.835937 -3.917968,8.753906 -8.75390575,8.753906 -4.83203125,0 -8.75000025,-3.917969 -8.75000025,-8.753906 0,-4.832031 3.917969,-8.753906 8.75000025,-8.753906 4.83593775,0 8.75390575,3.921875 8.75390575,8.753906 z m 0,0"
       transform="matrix(1,0,0,-1,47.271,71.35)"
       id="path60" />
  </g>
  <g
     fill="#000000"
     fill-opacity="1"
     id="g66">
    <use
       xlink:href="#glyph-0-5"
       x="44.779999"
       y="71.349998"
       id="use64" />
  </g>
  <g
     clip-path="url(#clip-2)"
     id="g70">
    <path
       fill="none"
       stroke-width="0.3985"
       stroke-linecap="butt"
       stroke-linejoin="miter"
       stroke="#000000"
       stroke-opacity="1"
       stroke-miterlimit="10"
       d="m 8.753312,3.209375 c 0,4.835937 -3.917968,8.753906 -8.75390575,8.753906 -4.83203125,0 -8.75390625,-3.917969 -8.75390625,-8.753906 0,-4.832031 3.921875,-8.753906 8.75390625,-8.753906 4.83593775,0 8.75390575,3.921875 8.75390575,8.753906 z m 0,0"
       transform="matrix(1,0,0,-1,71.817,71.35)"
       id="path68" />
  </g>
  <g
     fill="#000000"
     fill-opacity="1"
     id="g74">
    <use
       xlink:href="#glyph-0-6"
       x="69.325996"
       y="71.349998"
       id="use72" />
  </g>
  <path
     fill="none"
     stroke-width="0.3985"
     stroke-linecap="butt"
     stroke-linejoin="miter"
     stroke="rgb(0%, 0%, 0%)"
     stroke-opacity="1"
     stroke-miterlimit="10"
     d="M -5.1005 -4.146594 L -15.409094 -19.0255 "
     transform="matrix(1, 0, 0, -1, 39.038, 12.162)"
     id="path76" />
  <path
     fill="none"
     stroke-width="0.3985"
     stroke-linecap="butt"
     stroke-linejoin="miter"
     stroke="rgb(0%, 0%, 0%)"
     stroke-opacity="1"
     stroke-miterlimit="10"
     d="M -23.264563 -34.9005 L -27.330969 -47.459094 "
     transform="matrix(1, 0, 0, -1, 39.038, 12.162)"
     id="path78" />
  <path
     fill="none"
     stroke-width="0.3985"
     stroke-linecap="butt"
     stroke-linejoin="miter"
     stroke="rgb(0%, 0%, 0%)"
     stroke-opacity="1"
     stroke-miterlimit="10"
     d="M 5.098719 -4.146594 L 15.407312 -19.0255 "
     transform="matrix(1, 0, 0, -1, 39.038, 12.162)"
     id="path80" />
  <path
     fill="none"
     stroke-width="0.3985"
     stroke-linecap="butt"
     stroke-linejoin="miter"
     stroke="rgb(0%, 0%, 0%)"
     stroke-opacity="1"
     stroke-miterlimit="10"
     d="M 17.075281 -34.654406 L 11.661219 -47.709094 "
     transform="matrix(1, 0, 0, -1, 39.038, 12.162)"
     id="path82" />
  <path
     fill="none"
     stroke-width="0.3985"
     stroke-linecap="butt"
     stroke-linejoin="miter"
     stroke="rgb(0%, 0%, 0%)"
     stroke-opacity="1"
     stroke-miterlimit="10"
     d="M 23.934656 -34.654406 L 29.348719 -47.709094 "
     transform="matrix(1, 0, 0, -1, 39.038, 12.162)"
     id="path84" />
</svg>
